**kern	**kern
*staff2	*staff1
*clefF4	*clefG2
*k[]	*k[]
*M3/4	*M3/4
*C:	*C:
=-	=-
4B 4d	4r
=175	=175
2B 2d	12r
.	(12ccc#L
.	12dddJ
.	12eeeL
.	12ccc#
.	12dddJ)
(4B 4d	12r
.	(12ccc#L
.	12dddJ)
=176	=176
2A) 2c	12r
.	(12ccc#L
.	12dddJ
.	12eeeL
.	12ccc#
.	12dddJ)
(4A 4c	12r
.	(12ccc#L
.	12dddJ)
=177	=177
4F#) 4A	12r
.	(12ccc#L
.	12dddJ)
(4F# 4A	12r
.	(12ccc#L
.	12dddJ)
4G 4B-	12r
.	(12ccc#L
.	12dddJ)
=178	=178
4G# 4B	12r
.	(12ccc#L
.	12dddJ)
4A) 4c	12r
.	(12ccc#L
.	12dddJ)
(4C	12r
.	(12eeeL
.	12ff#J)
=179	=179
*^	*
4BB	2.BB	12r
.	.	(12ggL
.	.	12bbJ)
4D	.	12r
.	.	(12ddL
.	.	12ggJ)
4G	.	12r
.	.	(12bL
.	.	12ddJ)
=180	=180	=180
4C	2.C	12r
.	.	(12eeL
.	.	12ggJ)
4E	.	12r
.	.	(12ccL
.	.	12eeJ)
4A)	.	12r
.	.	(12aL
.	.	12ccJ)
=181	=181	=181
4r	2.D	12r
.	.	(12bL
.	.	12ddJ)
4B	.	12r
.	.	(12gL
.	.	12bJ)
4c	.	12r
.	.	(12dL
.	.	12f#J)
*v	*v	*
=182	=182
4G 4B	8gL
.	(8ggJ
4r	8ff#L
.	8ggJ
=	=
*-	*-
